!!!!SEGMENT: pl-wtm--r-1331_stefani-jozef--polonez-gwiazdka.krn
!!!cenid: 18xx:1838
!!!COM: Stefani, Józef
!!!COM-rismID: pe30024097
!!!CDT: 1800/04/16-1876/03/19
!!!CNT: Polish
!!!OTL: Polonez Gwiazdka
!!!PDT: 1872
!!!AGN: Secular; Polonaise
!!!SMS-siglum: PL-Wtm
!!!SMS-shelfmark: R 1331
!!!SMS-shelfwork: W
!!!SMS-variant:
!!!SMS-altvar:
!!!NIFC-rismSourceID: 1001119385
!!!NIFC-islandoraID: pl-wtm:25178
!!!URL-pdf-islandora: https://repozytorium.nifc.pl/islandora/object/pl-wtm%3A25178/datastream/PDF/view
!!!URL-scan: https://polish.musicsources.pl/pl/lokalizacje/galeria/rekopisy/6183 @EN{Scan on Polish Music Herritage in Open Access Website} @PL{Skany w portalu Dziedzictwo Muzyki Polskiej w otwartym dostępie}
!!!ONB-nifc:
!!!OMD: Polonez Gwiazdka. 1872 r.
!!!AIN: 2 forte
!!!key:
**kern	**kern	**dynam
*part2	*part1	*part1
*staff2	*staff1	*
*Iforte	*Iforte	*
*I"Fortepian	*I"Fortepian	*
*clefF4	*clefG2	*
*k[b-e-]	*k[b-e-]	*
*E-:	*E-:	*
*M3/4	*M3/4	*
*>[A,B,C,B,D,D,E,D,A,B,C,B]	*>[A,B,C,B,D,D,E,D,A,B,C,B]	*>[A,B,C,B,D,D,E,D,A,B,C,B]
=1	=1	=1
*>A	*>A	*>A
8B-L 8BB-\	8b-L 8d/	p
16F\L	16f/L	.
16F\JJ	16f/JJ	.
8B-L 8BB-\	8b-L 8d/	.
8F\	8f/	.
8B- 8BB-\	8b- 8d/	.
8B-J 8G 8E-\	8ee-J 8b- 8g/	f
=2	=2	=2
8B-L 8F 8BB-\	8ddL 8b- 8f/	.
16F\L	16f/L	p
16F\JJ	16f/JJ	.
8B-L 8BB-\	8b-L 8d/	.
8F\	8f/	.
8B- 8BB-\	8b- 8d/	.
8B-J 8G-X 8E-\	8ee-J 8b- 8g-X/	f
=3	=3	=3
*^	*	*
4B- 4F 4BB-\	4rEEyy	8ddL 8b- 8f/	.
.	.	16ff'/L	.
.	.	16ff'/JJ	.
4D/	8D\L	(16gg\LL	.
.	.	16ff\)	.
.	8B-J 8F\	16ee-'\	.
.	.	16dd'\JJ	.
8BB-\L	4rAAAyy	(16ee-\LL	.
.	.	16dd\)	.
8B-J 8F 8D\	.	16cc'\	.
.	.	16b-'\JJ	.
*v	*v	*	*
=4	=4	=4
8E- 8EE-/	8g'/L	.
8cL 8G 8E-\	(16cc/L	.
.	16ee-/JJ)	.
8c 8G 8E-\	8gg\L	.
8cJ 8G 8E-\	8gg\	.
8En\L	8aa\	.
8c#XJ 8B- 8G\	8bb-\J	.
!!LO:LB:g=original
=5	=5	=5
8d 8B- 8F\	8ff'\L	.
8r	(16ddd\L	.
.	16bb-\JJ)	.
8d 8B- 8F\	8ff'\L	.
8r	(16bb-\L	.
.	16ff\JJ)	.
8d 8B- 8F\	8dd'\L	.
8r	(16ff\L	.
.	16dd\JJ)	.
=6	=6	=6
8cL 8A 8F\	8cc\L	.
16f\L	16ff\L	.
16f\JJ	16ff\JJ	.
8f\L	8ff\L	.
8f\J	8ff\J	.
(16en\LL	(16een\LL	.
16f\	16ff\	.
16g\	16gg\	.
16f\JJ)	16ff\JJ)	.
=7	=7	=7
*tremolo	*tremolo	*
*	*2\right	*
!	!	!LO:DY:rj
8GL 8GG/	(16bb-LL 16dd\	ff
.	16b-\	.
8G 8GG/	16bb- 16dd\	.
.	16b-\	.
8G 8GG/	16bb- 16dd\	.
.	16b-\	.
8GJ 8GG/	16bb- 16dd\	.
.	16b-\JJ	.
*Xtremolo	*Xtremolo	*
8G-XL 8GG-X/	16eenLL 16cc\	.
.	16b-\	.
8G-J 8GG-/	16ee 16cc\	.
.	16b-\JJ	.
=8	=8	=8
8FL 8FF/	8ffL 8cc 8a\)	.
16r	16r	.
16FJk 16FF/	16fffJk 16aa 16ff\	.
8F 8FF/	8fff 8aa 8ff\	.
8e-L 8c\	8ee-L 8cc\	.
8d 8B-\	8dd 8b-\	.
8cJ 8F\	8ccJ 8f\	.
!!LO:LB:g=original
=9||	=9||	=9||
*>B	*>B	*>B
!	!LO:TX:a:t=P:problem="p" dopisane ołówkiem	!
!	!LO:TX:a:t=[segno]	!
8BB-\L	8dd\	.
8dJ 8B- 8F\	4b-\	.
*tremolo	*	*
*2\right	*	*
8dL 8B- 8F\	.	.
8d 8B- 8F\	(16cc\LL	.
.	16b-\JJ	.
8d 8B- 8F\	16a\LL	.
.	16b-\	.
8dJ 8B- 8F\	16cc\	.
.	16b-\JJ)	.
=10	=10	=10
8FF\L	8a'\L	.
8e-J 8c 8F\	(16cc\L	.
.	16ee-\JJ)	.
8AA\L	(8gg\L	.
8e-J 8c 8F\	8ff\J)	.
8FF\L	(16gg\LL	.
.	16ff\	.
8e-J 8c 8F\	16ee-\	.
.	16cc\JJ)	.
=11	=11	=11
!LO:TX:t=P:problem=mixed beam	!	!
.	8qcc#X/	.
8BB-/L	8dd\	.
8dJ 8B- 8F\	4b-\	.
8dL 8B- 8F\	.	.
!	!LO:SIC:s:v=ccn	!
8d 8B- 8F\	(16cc#y\LL	.
.	16b-\JJ	.
8d 8B- 8F\	16a\LL	.
.	16b-\	.
!	!LO:SIC:s:v=ccn	!
8dJ 8B- 8F\	16cc#\	.
.	16b-\JJ)	.
=12	=12	=12
!LO:TX:t=P:problem=mixed beam	!LO:TX:a:t=P:problem=w tym takcie artykulacja dopisana ołówkiem	!
8FF/L	16a/LL	.
.	16cc/J	.
8e-J 8c 8F\	8f/J	.
*rep	*	*
!LO:TX:t=P:problem=mixed beam	!	!
8FF/L	16cc\LL	.
.	16ee-\J	.
8e-J 8c 8F\	8a\J	.
*Xrep	*	*
*rep	*	*
!LO:TX:t=P:problem=mixed beam	!	!
8FF/L	16a/LL	.
.	16cc/J	.
8e-J 8c 8F\	8f/J	.
*Xrep	*	*
!!LO:LB:g=original
=13	=13	=13
!LO:TX:t=P:problem=mixed beam	!	!
.	(8qcc/	.
8BB-/L	8dd-X\)	.
8d-XJ 8B- 8F\	4b-\|	.
8d-L 8B- 8F\	.	.
8d- 8B- 8F\	(16cc\LL	.
.	16b-\JJ	.
8d- 8B- 8F\	16a\LL	.
.	16b-\	.
8d-J 8B- 8F\	16cc\	.
.	16b-\JJ)	.
*Xtremolo	*	*
=14	=14	=14
*^	*	*
4E-/	8E-\L	8g-X'\L	.
.	8cJ 8G-X\	(16cc\L	.
.	.	16ee-\JJ)	.
*rep	*rep	*	*
!	!	!LO:SIC:s:v=gg-:t=bemol dopisany ołówkiem	!
4E-/	8E-\L	8gg\L	<
*Xrep	*Xrep	*	*
*rep	*rep	*	*
!	!	!LO:SIC:s:v=gg-	!
.	8cJ 8G-X\	8gg\	.
4E-/	8E-\L	8ff\	.
.	8cJ 8G-X\	8ee-\J	[[
*Xrep	*Xrep	*	*
*v	*v	*	*
=15	=15	=15
!	!	!LO:DY:rj
8F\L	(16ff\LL	f
.	16bb-\J)	.
8dJ 8B-\	8dd'\J	.
*rep	*	*
8F\L	(16dd\LL	.
.	16ff\J)	.
8dJ 8B-\	8b-'\J	.
*Xrep	*	*
*rep	*	*
8F\L	(16b-/LL	.
.	16dd/J)	.
8dJ 8B-\	8f'/J	.
*Xrep	*	*
=16	=16	=16
.	(>8qa/	.
8e-L 8c 8F\	16gg\LL	.
.	16ff\	.
8e-J 8c 8F\	16ee-\	.
.	16a\JJ)	.
8r	(4cc\	.
8e-L 8A 8F\	.	.
8dJ 8B-\	8b-\)	.
!LO:TX:b:i:t=fine	!	!
8r	8r;	.
!!LO:LB:g=original
=17:|!	=17:|!	=17:|!
*>C	*>C	*>C
8GL 8GG\	8gL 8B-/	p
16D\L	16d/L	.
16D\JJ	16d/JJ	.
8GL 8GG\	8gL 8B-/	.
8D\J	8d/J	.
8GL 8GG\	8gL 8B-/	.
8GJ 8E- 8C\	8ee-J 8cc 8g/	f
=18	=18	=18
8GL 8D 8GG\	8ddL 8b- 8g/	.
16D\L	16d/L	p
16D\JJ	16d/JJ	.
8GL 8GG\	8gL 8B-/	.
8D\J	8d/J	.
8GL 8GG\	8gL 8B-/	.
8GJ 8E- 8C\	8ccJ 8g 8e-/	f
=19	=19	=19
8GL 8D 8GG\	8b-L 8g 8d/	.
8B-J 8G 8D\	16dd/L	.
.	16dd/JJ	.
!LO:TX:t=P:problem=mixed beam	!	!
8GG/L	16ee-\LL	.
.	16dd\	.
8B-J 8G 8D\	16cc\	.
.	16b-\JJ	.
!LO:TX:t=P:problem=mixed beam	!	!
8GG/L	16cc/LL	.
.	16b-/	.
8B-J 8G 8D\	16a/	.
.	16g/JJ	.
=20	=20	=20
8D\L	8f#X'/L	.
8cJ 8F#X\	(16a/L	.
.	16cc/JJ)	.
*rep	*	*
8D\L	(8ee-\L	.
8cJ 8F#X\	8dd\J)	.
*Xrep	*	*
*rep	*	*
8D\L	(16aa\LL	.
.	16ff#X\	.
8cJ 8F#X\	16dd\	.
.	16cc\JJ)	.
*Xrep	*	*
!!LO:LB:g=original
=21	=21	=21
!LO:TX:t=P:problem=mixed beam	!	!
8GG/L	8b-'\L	.
8B-J 8G 8D\	16dd'\L	.
.	16dd'\JJ	.
*rep	*	*
!LO:TX:t=P:problem=mixed beam	!	!
8GG/L	(16ee-\LL	.
.	16dd\	.
8B-J 8G 8D\	16cc\	.
.	16b-\JJ)	.
*Xrep	*	*
*rep	*	*
!LO:TX:t=P:problem=mixed beam	!	!
8GG/L	(16cc/LL	.
.	16b-/	.
8B-J 8G 8D\	16a/	.
.	16g/JJ)	.
*Xrep	*	*
=22	=22	=22
!LO:TX:t=P:problem=mixed beam	!	!
8FF/L	8a'\L	.
8e-J 8c 8F\	(16cc\L	.
.	16ee-\JJ)	.
!LO:TX:t=P:problem=mixed beam	!	!
8AA/L	(8gg\L	.
8e-J 8c 8F\	8ff\J)	.
.	(8qaa/	.
!LO:TX:t=P:problem=mixed beam	!	!
8FF/L	(8gg\L)	.
8e-J 8c 8F\	8ff\J)	.
=23	=23	=23
!LO:TX:t=P:problem=mixed beam	!	!
8BB-/L	8dd'\L	.
8dJ 8B- 8F\	16bb-'\L	.
.	16bb-'\JJ	.
8dL 8B- 8F\	(16aan\LL	.
.	16bb-\	.
8dJ 8B- 8F\	16ccc\	.
.	16bb-\JJ	.
8B-L 8G-X\	8ddd-X\L)	.
8cJ 8B- 8G-\	8een\J	.
=24	=24	=24
8cL 8A 8F\	8ff\L	.
16r	16r	.
16FJk 16FF\	16fffJk 16aa 16ff\	.
8F 8FF\	8fff 8aa 8ff\	.
8e-L 8c\	8ee-L 8cc\	.
8d 8B-\	8dd 8b-\	.
!	!LO:TX:a:t=[segno]:problem=problem"znak segno na kresce taktowej	!
!	!LO:TX:b:i:t=d'al segno \nal fine\ne poi\nTrio.	!
8cJ 8F\	8ccJ 8f\	.
!!LO:PB:g=original
=25||	=25||	=25||
!!!OMD: Trio.
*>D	*>D	*>D
*k[b-e-a-]	*k[b-e-a-]	*
8E-L 8EE-\	8b-L 8g/	f
16B-L 16G 16E-\	16b-L 16g/	p
16B-JJ 16G 16E-\	16b-JJ 16g/	.
8B-L 8G 8E-\	8b-L 8g/	.
8B-J 8G 8E-\	8b- 8g/	.
8cL 8An 8F#X 8E-\	8an 8f#X^/	.
8cJ 8A 8F# 8E-\	8ccJ 8a/	.
=26	=26	=26
8E- 8EE-/	(<4b- 4g/	.
8B- 8G 8E-\	.	.
*tremolo	*	*
8B-L 8G 8E-\	16gLL 16e-\)	.
.	(16ee-\	.
8B- 8G 8E-\	16dd\	.
.	16ee-\JJ	.
8B- 8G 8E-\	16gg\LL	.
.	16ee-\	.
8B-J 8G 8E-\	16b-\	.
.	16g\JJ)	.
=27	=27	=27
!LO:TX:t=P:problem=mixed beam	!	!
8EE-/L	(16e-/LL	.
.	16g/	.
8B-J 8G 8E-\	16b-/	.
.	16ee-/JJ)	.
*rep	*	*
!LO:TX:t=P:problem=mixed beam	!	!
8EE-/L	(8gg\L	.
8B-J 8G 8E-\	16ff\L	.
.	16ee-\JJ)	.
*Xrep	*	*
*rep	*	*
!LO:TX:t=P:problem=mixed beam	!	!
8EE-/L	(16ff\LL	.
.	16ee-\	.
8B-J 8G 8E-\	16dd\	.
.	16cc\JJ)	.
*Xrep	*	*
!!LO:LB:g=original
=28	=28	=28
!LO:TX:t=P:problem=mixed beam	!	!
8BB-/L	8b-'/L	.
8AnJ 8En 8C\	8an'/J	.
8BB-\L	(16a-X/LL	.
.	16f/	.
8A-XJ 8F 8D\	16en/	.
.	16f/JJ	.
*rep	*	*
8BB-\L	16a-/LL	.
.	16f/	.
8A-XJ 8F 8D\	16d/	.
.	16B-/JJ)	.
*Xrep	*	*
=29	=29	=29
*^	*	*
!	!LO:N:vis=2	!	!
2BB-/	8BB-\L	8a-L 8f/	f
.	8B- 8F 8D\	16a-L 16f/	p
.	.	16a-JJ 16f/	.
.	8B- 8F 8D\	8a-L 8f/	.
.	8B-J 8F 8D\	8a-J 8f/	.
4BB-/	8BB-\L	8gL 8en/	.
.	8GJ 8En 8C#X\	8b-J 8g^/	.
*v	*v	*	*
=30	=30	=30
!LO:TX:t=P:problem=mixed beam	!	!
8BB-/L	(<4a- 4f/	.
8B-J 8A- 8F\	.	.
!	!LO:TX:t=P:problem=mixed beam	!
8B-L 8A- 8F\	16fLL 16d/)	.
.	(16ff\	.
8B- 8A- 8F\	16een\	.
.	16ff\JJ	.
8B- 8A- 8F\	16aa-\LL	.
.	16ff\	.
8B-J 8A- 8F\	16dd\	.
.	16b-\JJ)	.
=31	=31	=31
8BB-\L	(16f/LL	.
.	16b-/)	.
8B-J 8A- 8F\	16dd'/	.
.	16ff'/JJ	.
*rep	*	*
8BB-\L	(16aa-\LL	.
.	16gg\)	.
8B-J 8A- 8F\	16ff'\	.
.	16ee-'\JJ	.
*Xrep	*	*
*rep	*	*
8BB-\L	(16dd\LL	.
.	16cc\)	.
8B-J 8A- 8F\	16b-'\	.
.	16a-'\JJ	.
*Xrep	*	*
!!LO:LB:g=original
=32	=32	=32
8E-\L	(16cc/LL	.
.	16b-/	.
8B-J 8G\	16an/	.
.	16b-/JJ)	.
*rep	*	*
8E-\L	(16g\LL	.
.	16ee-\	.
8B-J 8G\	16dd\	.
.	16ee-\JJ	.
*Xrep	*	*
*rep	*	*
8E-\L	16gg\LL	.
.	16ee-\	.
8B-J 8G\	16b-\	.
.	16g\JJ)	.
*Xrep	*	*
=33	=33	=33
*^	*	*
!	!LO:N:vis=2	!	!
2.E-/	8E-\L	8ee-L 8cc'\	.
.	8c 8A-\	16ee-L 16cc'\	.
.	.	16ee-JJ 16cc'\	.
.	8c 8A-\	8ee-L 8cc'\	.
.	8c 8A-\	8ee- 8cc'\	.
.	8c 8A-\	8dd 8b-'\	.
.	8cJ 8A-\	8ccJ 8a-'\	.
*v	*v	*	*
=34	=34	=34
8E-\L	8b-L 8g'/	.
8B-J 8G\	(16an/L	.
.	16b-/JJ)	.
*rep	*	*
8E-\L	8g'/L	.
8B-J 8G\	(16f#X/L	.
.	16g/JJ)	.
*Xrep	*	*
*rep	*	*
8E-\L	8e-'/L	.
8B-J 8G\	(16d/L	.
.	16e-/JJ)	.
*Xrep	*	*
=35	=35	=35
*^	*	*
!	!LO:N:vis=2	!	!
2.E-/	8E-\L	(8ee-\L	.
.	8c 8A-\	16dd\L	.
.	.	16ee-\JJ	.
.	8c 8A-\	8.aa-\L	.
.	8c 8A-\	.	.
.	.	16gg\Jk	.
.	8c 8A-\	16ff\LL	.
.	.	16ee-\	.
.	8cJ 8A-\	16dd\	.
.	.	16cc\JJ)	.
*v	*v	*	*
!!LO:LB:g=original
=36	=36	=36
8E-\L	8b-'/L	.
8B-J 8G\	(<16an/L	.
.	16b-/JJ	.
*rep	*	*
8E-\L	16g\LL)	.
.	(16ee-\	.
8B-J 8G\	16dd\	.
.	16ee-\JJ	.
*Xrep	*	*
*rep	*	*
8E-\L	16gg\LL	.
.	16ee-\	.
8B-J 8G\	16b-\	.
.	16g\JJ)	.
*Xrep	*	*
=37	=37	=37
*^	*	*
!	!	!LO:TX:a:t=P:problem=w tt. 37-40 artykulacja dopisana ołówkiem	!LO:DY:rj
8AA-/L	4AA-\	(16en/LL	f
.	.	16f/	.
8FJ 8C/	.	16a-/	.
.	.	16cc/JJ)	.
*rep	*rep	*	*
8AA-/L	4AA-\	4ff 4f\	.
8FJ 8C/	.	.	.
*Xrep	*Xrep	*	*
!	!	!LO:SIC:s:v=e-	!
*rep	*rep	*	*
8AA-/L	4AA-\	4ee- 4e/	.
8FJ 8C/	.	.	.
*Xrep	*Xrep	*	*
*v	*v	*	*
=38	=38	=38
8BB-\L	(16dd\LL	.
.	16b-\	.
8B-J 8A- 8F 8D\	16dd\	.
.	16ff\JJ)	.
*rep	*	*
8BB-\L	4bb- 4b-\	.
8B-J 8A- 8F 8D\	.	.
*Xrep	*	*
*rep	*	*
8BB-\L	4aa- 4a-\	.
8B-J 8A- 8F 8D\	.	.
*Xrep	*	*
=39	=39	=39
*^	*	*
8E-\L	4rAAAyy	(16gg\LL	.
.	.	16ee-\	.
8B-J 8G\	.	16gg\	.
.	.	16bb-\JJ)	.
8E-\L	4rAAAyy	4eee- 4ee-\	.
8B-J 8G\	.	.	.
8AA-/L	4AA-\	4ccc 4cc\	.
8FJ 8C/	.	.	.
!!LO:LB:g=original
=40	=40	=40	=40
.	.	(>8qb-/	.
4BB-/	8BB-\L	16bb-\LL	.
.	.	16aa-\	.
.	8A-J 8F\	16ff\	.
.	.	16dd\JJ)	.
4BB-/	8BB-\L	4ff\	.
.	8A-J 8F 8D\	.	.
4rAyy	8G 8E-\	8ee-\	.
!	!LO:TX:a:i:t=fine	!	!
.	8r	8r;	.
*v	*v	*	*
=41:|!	=41:|!	=41:|!
*>E	*>E	*>E
!	!	!LO:DY:rj
16C\LL	8ee-'\L	f
16G\	.	.
16E-\	16ee-'\L	.
16G\JJ	16ee-'\JJ	.
*rep	*	*
16C\LL	8ee-'\L	.
16G\	.	.
16E-\	(16ff\L	.
16G\JJ	16ee-\JJ	.
*Xrep	*	*
*rep	*	*
16C\LL	16dd\LL	.
16G\	16ee-\	.
16E-\	16ff\	.
16G\JJ	16ee-\JJ)	.
*Xrep	*	*
=42	=42	=42
16GG\LL	(16dd\LL	.
16G\	16bn\J)	.
16D\	8g'\J	.
16G\JJ	.	.
*rep	*	*
16GG\LL	(16gg\LL	.
16G\	16dd\J)	.
16D\	8b'\J	.
16G\JJ	.	.
*Xrep	*	*
*rep	*	*
16GG\LL	(16bbn\LL	.
16G\	16gg\J)	.
16D\	8dd'\J	.
16G\JJ	.	.
*Xrep	*	*
=43	=43	=43
16C\LL	8ccc'\L	.
16G\	.	.
16E-\	16gg'\L	.
16G\JJ	16gg'\JJ	.
*rep	*	*
16C\LL	(16aa-\LL	.
16G\	16gg\)	.
16E-\	16ff'\	.
16G\JJ	16ee-'\JJ	.
*Xrep	*	*
*rep	*	*
16C\LL	(16ff\LL	.
16G\	16ee-\)	.
16E-\	16dd'\	.
16G\JJ	16cc'\JJ	.
*Xrep	*	*
!!LO:LB:g=original
=44	=44	=44
16BB-\LL	(16dd\LL	.
16B-\	16ff\J)	.
16F\	8b-'\J	.
16B-\JJ	.	.
*rep	*	*
16BB-\LL	(16ff\LL	.
16B-\	16aa-\J)	.
16F\	8dd'\J	.
16B-\JJ	.	.
*Xrep	*	*
*rep	*	*
16BB-\LL	(16bb-\LL	.
16B-\	16ddd\J)	.
16F\	8ff'\J	.
16B-\JJ	.	.
*Xrep	*	*
=45	=45	=45
8E-L 8EE-\	8gg\L	.
8B-J 8G 8E-\	(16eee-\L	.
.	16ddd\JJ)	.
8B-L 8G 8E-\	(16eee-\LL	.
.	16ddd\)	.
8B- 8G 8E-\	16ccc'\	.
.	16bb-'\JJ	.
8B- 8G 8E-\	(16ccc\LL	.
.	16bb-\)	.
8B-J 8G 8E-\	16aa-'\	.
.	16gg'\JJ	.
=46	=46	=46
*^	*	*
4AA-/	8AA-\L	(16ff\LL	.
.	.	16een\	.
.	8FJ 8E- 8C\	16ff\	.
.	.	16gg\JJ	.
4AA-/	8AA-\L	16aa-\LL	.
.	.	16gg\	.
.	8FJ 8E- 8C\	16aa-\	.
.	.	16bb-\JJ)	.
4AAn/	8AAn\L	(16ccc\LL	.
.	.	16ddd\	.
.	8F#XJ 8E- 8C\	16eee-\	.
.	.	16ccc\JJ)	.
*v	*v	*	*
=47	=47	=47
8BB-\L	8bb-\L|	.
!	!LO:TUP:a:problem=klamra łukowa	!
8GJ 8E-\	24eee-\L	.
.	24bb-\	.
.	24gg\JJ	.
*rep	*	*
8BB-\L	8ee-\L|	.
!	!LO:TUP:a:problem=klamra łukowa	!
8GJ 8E-\	24bb-\L	.
.	24gg\	.
.	24ee-\JJ	.
*Xrep	*	*
*rep	*	*
8BB-\L	8b-\L|	.
!	!LO:TUP:a:problem=klamra łukowa	!
8GJ 8E-\	24gg\L	.
.	24ee-\	.
.	24b-\JJ	.
*Xrep	*	*
=48	=48	=48
8B-L 8BB-\	8dd\L	.
16B-L 16F 16BB-\	16bb-L 16dd 16b-'\	.
16B-JJ 16F 16BB-\	16bb-JJ 16dd 16b-'\	.
8B- 8F 8BB-\	8bb- 8dd 8b-'\	.
(8B-\L	(8b-L 8d/	.
8c\	8a- 8e-/	.
!LO:TX:b:i:t=Trio da capo al fine e poi\nPolonez.	!	!
8d\J)	8f/J)	.
==||	==||	==||
*-	*-	*-
!!!system-decoration: {(s1,s2)}
!!!RDF**kern: > = above
!!!RDF**kern: < = below
!!!RDF**kern: | = vertical stroke
!!!ENC: Marta Lawrence
!!!END: 2021-05-03
!!!ENC: Marcin Jachim
!!!END: 2021-04-09
